X:95
T:Derrire chez moi, y'a un etang - Pil\'e Menu
C:Skolvan
M:2/4
L:1/8
K:C
ee fe |dc Be/e/|ee fe |dc B2:|\
Bd dB |c2A2|:AB/c/ d2 |\
ed/c/ BB/B/|1 Bd dB |c2AB:|2 Be eB |c2A2||
